!!!!SEGMENT: pl-sa--549-a-ix-29--041_anonim--valse.krn
!!!cenid: 18xx:495
!!!COM: Anonim
!!!COM-rismID: pe30004985
!!!CDT:
!!!CNT:
!!!OTL: Valse
!!!PDT:
!!!AGN: Secular; Waltz
!!!YEC: Copyright 2022 Narodowy Instytut Fryderyka Chopina (https://polishscores.org)
!!!YEM: License CC-BY-4.0 (https://creativecommons.org/licenses/by/4.0)
!!!SMS-siglum: PL-SA
!!!SMS-shelfmark: 549/A IX 29
!!!SMS-shelfwork: 041 W
!!!SMS-variant:
!!!SMS-altvar:
!!!NIFC-rismSourceID: 1001068939
!!!NIFC-rismChildID: 1001068939
!!!NIFC-islandoraID: none
!!!URL-pdf-islandora:
!!!URL-scan: https://bc.bdsandomierz.pl/dlibra/publication/1441/edition/1409/content @EN{Scan in the Sandomierz Diocese Digital Library} @PL{Skany w portalu Cyfrowa Biblioteka Diecezjalna w Sandomierzu}
!!!IIIF:
!!!ONB-nifc: Str. 29 (s. 5) – str. 30 (s. 5)
!!!AIN: 1 piano
!!!key: G
**kern	**kern	**dynam
*group1	*group1	*
*part1	*part1	*
*staff2	*staff1	*
*I"[Piano]	*I"[Piano]	*
*Ipiano	*Ipiano	*
*ICklav	*ICklav	*
*clefF4	*clefG2	*
*k[f#]	*k[f#]	*
*G:	*G:	*
*M3/8	*M3/8	*
=1	=1	=1
8BB\ 8B\	8b\ 8bb\|>	ff
8r	8r	.
!	!LO:N:vis=8	!
16GG\LL 16G\	16g\LL 16gg\	.
!	!LO:N:vis=8	!
16AA\JJ 16A\	16a\JJ 16aa\	.
=2	=2	=2
8BB\L 8B\|>	8b\L 8bb\|>	.
8C\ 8c\|>	8cc\ 8ccc\|>	.
8C#X\J 8c#X\|>	8cc#X\J 8ccc#X\|>	.
=3	=3	=3
8D\ 8d\|>	8dd\ 8ddd\|>	.
8r	8r	.
8E\ 8e\	8ee\ 8eee\	.
=4	=4	=4
4D\ 4d\	4dd\ 4ddd\	.
8r	8r	.
=5!|:	=5!|:	=5!|:
*^	*	*
!	!	!LO:TX:a:i:t=legere	!
!LO:N:xstem	!	!	!
4.G/	8G\L	8b\	.
.	8B\ 8d	8r	.
.	8B\J 8d	16g\LL	.
.	.	16a\JJ	.
=6	=6	=6	=6
!LO:N:xstem	!	!	!
4.G/	8G\L	8b\	.
.	8B\ 8d	8r	.
.	8B\J 8d	(>16g\LL	.
.	.	16a\JJ	.
=7	=7	=7	=7
4.G/	8G\L	8b\L	.
.	8B\ 8d\ 8g\	8cc\)|>	.
.	8B\J 8d\ 8g\	8cc#X\J|>	.
=8	=8	=8	=8
*rep	*rep	*	*
4.G/	8G\L	4dd\	.
.	8B\ 8d\ 8g\	.	.
.	8B\J 8d\ 8g\	(>16ee\LL	.
.	.	16ff#\JJ	.
*Xrep	*Xrep	*	*
=9	=9	=9	=9
!LO:N:xstem	!	!	!
4.G/	8G\L	4gg\)|>	.
.	8c\ 8e\ 8g\	.	.
.	8c\J 8e\ 8g\	16ee\LL	.
.	.	16ff#\JJ	.
=10	=10	=10	=10
*rep	*rep	*	*
4.G/	8G\L	8gg\	.
.	8c\ 8e\ 8g\	16aa\LL	.
.	.	16gg\	.
.	8c\J 8e\ 8g\	16ff#\	.
.	.	16ee\JJ	.
*Xrep	*Xrep	*	*
=11	=11	=11	=11
!LO:N:xstem	!	!	!
4.G/	8G\L	8dd\L|>	.
.	8B\ 8d 8g	8ee\|>	.
.	8B\J 8d 8g	8dd\J|>	.
=12	=12	=12	=12
*rep	*rep	*	*
4.G/	8G\L	4b\	.
.	8B\ 8d 8g	.	.
.	8B\J 8d 8g	16cc\LL	.
.	.	16b\JJ	.
*Xrep	*Xrep	*	*
*v	*v	*	*
!!LO:LB:g=original
=13	=13	=13
8D\L	8a/L	.
8F#\ 8A\ 8c\	16c#X/L	.
.	16d/	.
8F#\J 8A\ 8c\	16b/	.
.	16a/JJ	.
=14	=14	=14
!!mixed beam:problem
!LO:TX:t=P:problem=mixed beam	!	!
8GG/L	8.g\L	.
8D\ 8G\ 8B\	.	.
.	16b\L	.
8D\J 8G\ 8B\	16cc\	.
.	16b\JJ	.
=15	=15	=15
8DD/	8a/L	.
8D\L 8F#\ 8A\ 8c\	16c#X/L	.
.	16d/	.
8D\J 8F#\ 8A\ 8c\	16b/	.
.	16a/JJ	.
=16	=16	=16
!!mixed beam:problem
!LO:TX:t=P:problem=mixed beam	!	!
8GG/L	8.g/L	.
8D\ 8G\ 8B\	.	.
.	16g/L	.
8D\J 8G\ 8B\	16a/	.
.	16g/JJ	.
=17	=17	=17
*^	*	*
4.AA/	8AA\L	8f#/L	.
.	8D\ 8F# 8A	16g/L	.
.	.	16g#X/	.
.	8D\J 8F# 8A	16a/	.
.	.	16b/JJ	.
=18	=18	=18	=18
4.AA/	8AA\L	8.ff#\L	.
.	8C#X\ 8E 8A	.	.
.	.	16ee\L	.
.	8C#\J 8E 8A	16ff#\	.
.	.	16ee\JJ	.
=19	=19	=19	=19
8D/L	4.D\	4.dd\	.
8F#/ 8A/	.	.	.
8G#X/J 8B/	.	.	.
*v	*v	*	*
=20	=20	=20
4.D\ 4.A\ 4.c\	16dd\LL	.
.	16cc#X\	.
.	16ee\	.
.	16dd\	.
.	16cc#\	.
.	16ccn\JJ	.
=21:|!	=21:|!	=21:|!
*^	*	*
4.G/	8G\L	4g\	.
.	8B\ 8d\	.	.
.	8B\J 8d\	16b\LL	.
.	.	16cc#X\JJ	.
=22	=22	=22	=22
!LO:N:xstem	!	!	!
4.F#/	8F#\L	8dd\L|>	.
.	8B\ 8d	16d\L	.
.	.	16f#\	.
.	8B\J 8d	16b\	.
.	.	16dd\JJ	.
!!LO:TX:t=P:problem:brak kreski taktowej
!!LO:LB:g=original
=23	=23	=23	=23
4.F#/	8F#\L	4ff#\	.
!	!LO:SIC:n=2:v:s:t=8c#	!	!
.	8A#X\ 8c\ 8e\	.	.
!	!LO:SIC:n=2:v:s:t=8c#	!	!
.	8A#\J 8c\ 8e\	8a#X\	.
*v	*v	*	*
=24	=24	=24
8B\L 8d\	8b\L|>	.
8F#\	16f#\L	.
.	16b\	.
!	!LO:SIC:v:s:t=16c#	!
8A#X\J 8c\ 8e\	16dd\	.
.	16cc#X\JJ	.
=25	=25	=25
4B\ 4d\	4b\	.
8r	8r	.
=26!|:	=26!|:	=26!|:
!	!	!LO:DY:rj:t=f&colon;
8G\L 8B\	8g/L|<	f
8D\	16B/L	.
.	16d/	.
8G\J 8B\	16g/	.
.	16b/JJ	.
=27	=27	=27
8F#\L 8A\ 8c\	8dd\L|>	.
8D\	(>16ee\L	.
.	16dd\)	.
8F#\J 8A\ 8c\	(>16ee\	.
.	16dd\JJ)	.
=28	=28	=28
8G\L 8B\	8b\	.
8D\	16B/LL	.
.	16d/	.
8G\J 8B\	16g/	.
.	16b/JJ	.
=29	=29	=29
8F#\L 8A\ 8c\	8dd\	.
8D\	(>16ee\LL	.
.	16dd\)	.
8F#\J 8A\ 8c\	(>16ee\	.
.	16dd\JJ)	.
=30	=30	=30
8G\L	8b\	.
8B\ 8d\	16f#'>\LL	.
.	16g'>\	.
8B\J 8d\	16a'>\	.
.	16b'>\JJ	.
=31	=31	=31
8G\L	16cc\LL|>	<
.	16dd\|>	.
8B\ 8d\	16ee\|>	.
.	16ff#\|>	.
8B\J 8d\	16gg\|>	.
.	16aa\JJ|>	.
=32	=32	=32
8G\L 8B\ 8d\ 8g\	16bb\LL|>	.
.	16ccc\JJ|>	.
8G\ 8B\ 8d\ 8g\	8ddd\L|>	.
8G\J 8B\ 8d\ 8g\	8dd#X\J 8ddd#X\|>	.
!!LO:LB:g=original
=33	=33	=33
!	!	!LO:DY:t=sf&colon;
4.C\ 4.E\ 4.G\ 4.c\	8.ee\L 8.eee\	sf
.	16bb\L	.
.	16ccc\	.
.	16bb\JJ	.
=34	=34	=34
8D\L 8F#\ 8A\ 8c\	8aa\L|>	.
8r	16dd\L	.
.	16ff#\	.
8D\J 8F#\ 8A\ 8c\	16aa\	.
.	16ddd\JJ	.
=35	=35	=35
8G\L 8B\	8.bb\L	.
8D\	.	.
.	16ddd\L	.
8G\J 8B\	16ccc\	.
.	16bb\JJ	.
=36	=36	=36
8D\L 8F#\ 8A\ 8c\	8aa\L	.
8r	16dd\L	.
.	16ff#\	.
8D\J 8F#\ 8A\ 8c\	16aa\	.
.	16ddd\JJ	.
=37	=37	=37
8G\L 8B\	8.bb\L	.
8D\	.	.
.	16ddd\L	.
8G\J 8B\	16ccc\	.
.	16bb\JJ	.
=38	=38	=38
*^	*	*
4.C/	8C\L	8aa\L	.
.	8E\ 8G\	16aa\L	.
.	.	16gg\	.
.	8E\J 8G\	16ff#\	.
.	.	16ee\JJ	.
*v	*v	*	*
=39	=39	=39
8D\L	8dd`>\L	.
8G\ 8B\	(>16ff#\L	.
.	16dd\	.
8G\J 8B\	16cc\	.
.	16b\JJ)	.
=40	=40	=40
*^	*	*
4.C/	8C\L	8a\L	.
.	8F#\ 8A\ 8c\	16dd\L	.
.	.	16cc\	.
.	8F#\J 8A\ 8c\	16b\	.
.	.	16a\JJ	.
*v	*v	*	*
=41	=41	=41
4G\ 4B\	4g/	.
8r	8r	.
==42	==42	==42
*k[]	*k[]	*
*M3/8	*M3/8	*
!LO:TX:a:t=P:problem=kasownik niewidoczny	!LO:TX:a:t=P:problem=kasownik niewidoczny	!
!	!LO:TX:b:t=dol&colon;	!
!	!LO:TX:b:B:t=Trio:rj	!
8r	8gg\	.
=43	=43	=43
*^	*	*
!	!LO:N:vis=4	!	!
8r	4.C\	4eee\	.
8E/L 8G/ 8c/	.	.	.
8E/J 8G/ 8c/	.	8bb\	.
!!LO:LB:g=original
=44	=44	=44	=44
*rep	*rep	*	*
!	!LO:N:vis=4	!	!
8r	4.C\	4ccc\	.
8E/L 8G 8c	.	.	.
8E/J 8G 8c	.	8ee\	.
*Xrep	*Xrep	*	*
=45	=45	=45	=45
*rep	*rep	*	*
!	!LO:N:vis=4	!	!LO:DY:t=sf.
8r	4.C\	4.a\ 4.aa\	sf
8E/L 8G 8c	.	.	.
8E/J 8G 8c	.	.	.
*Xrep	*Xrep	*	*
=46	=46	=46	=46
*rep	*rep	*	*
!	!	!LO:N:vis=4	!
8r	4.C\	8a\L 8aa\	.
8E/L 8G 8c	.	8g\ 8gg\	.
8E/J 8G 8c	.	8e\J 8ee\	.
*Xrep	*Xrep	*	*
=47	=47	=47	=47
8r	8C\L	8c\ 8cc\	.
8rAyy	8E\J 8G\	8r	.
8rAyy	8E\ 8G\	16ee\LL 16eee\	.
.	.	16ee\JJ 16eee\	.
=48	=48	=48	=48
!	!LO:N:vis=4	!	!
8r	4.C\	8ee\L 8eee\	.
8E\L 8G#X\	.	8dd\ 8ddd\	.
8E\J 8G#\	.	8cc\J 8ccc\	.
=49	=49	=49	=49
!	!LO:N:vis=4	!	!
8r	4.C\	4.b\ 4.bb\	.
8F\L 8A\	.	.	.
8F\J 8A\	.	.	.
=50	=50	=50	=50
!	!LO:N:vis=4	!	!
8F/L 8A/	4.C\	4a\ 4aa\	.
8F/ 8A/	.	.	.
8F/J 8A/	.	16ee\LL 16ddd\	.
.	.	16ff\JJ 16fff\	.
=51	=51	=51	=51
!	!LO:N:vis=4	!	!
8r	4.C\	8ff\L 8fff\	.
8F\L 8A\	.	8dd\ 8ddd\	.
8F\J 8A\	.	8ee\J 8eee\	.
=52	=52	=52	=52
!	!LO:N:vis=4	!	!
8r	4.C\	8ff\L 8fff\	.
8F\L 8A-X\	.	8ee\ 8eee\	.
8F\J 8A-\	.	8dd\J 8ddd\	.
=53	=53	=53	=53
8r	8BB\	4ff\ 4fff\	sf
8F/L 8A-X/	4F\	.	.
8F/J 8A-/	.	(<8a-X\ (>8aa-X\	.
=54	=54	=54	=54
*rep	*rep	*	*
!	!LO:N:vis=4	!	!
8r	8BB\	4.a-X\) 4.aa-X)	.
8F/L 8A-X	4F\	.	.
8F/J 8A-	.	.	.
*Xrep	*Xrep	*	*
!!LO:LB:g=original
=55	=55	=55	=55
!	!LO:N:vis=4	!	!
8r	4.BB\	8a-X/L 8aa-X/	.
8F/L 8A/ 8d/	.	8g/ 8gg/	.
8F/J 8G/ 8d/	.	8f#X/J 8ff#X/	.
=56	=56	=56	=56
!	!LO:N:vis=4	!	!
8r	4.GG\ 4.BB\	8an/L 8aan/	.
8F/L 8G/ 8B/	.	8g/ 8gg/	.
8F/J 8G/ 8B/	.	8fn/J 8ffn/	.
=57	=57	=57	=57
!	!LO:N:vis=4	!	!
8r	4.C\	(>4.d#X/ 4.dd#X/	.
8E/L 8G/ 8c/	.	.	.
8E/J 8G/ 8c/	.	.	.
=58	=58	=58	=58
*rep	*rep	*	*
!	!LO:N:vis=4	!	!
8r	4.C\	4e\) 4ee\	.
8E/L 8G/ 8c/	.	.	.
8E/J 8G/ 8c/	.	16e\LL 16ee\	.
.	.	16e\JJ 16ee\	.
*Xrep	*Xrep	*	*
=59	=59	=59	=59
!	!LO:N:vis=4	!	!
8r	4.D\	8e\L 8ee\	.
8E/L 8G#X/ 8B/	.	8f\ 8ff\	.
8E/J 8G#/ 8B/	.	8e\J 8ee\	.
*v	*v	*	*
=60	=60	=60
8C\L	(>4a\ 4aa\	.
8E\ 8A\ 8c\	.	.
8E\J 8A\ 8c\	8ee\)	.
=61	=61	=61
*^	*	*
!	!LO:N:vis=4	!	!
8r	4.BB\	4cc\ 4ccc\	.
8D/L 8E/ 8G#X/	.	.	.
!	!	!LO:SIC:v:s:t=16g#\ 16gg#\	!
8D/J 8E/ 8G#/	.	16g\LL 16gg\	.
!	!	!LO:SIC:v:s:t=16g#\ 16gg#\	!
.	.	16g\JJ 16gg\	.
=62	=62	=62	=62
!	!LO:N:vis=4	!	!
8r	4.AA\	8.g\L 8.gg\	.
8C\L 8E\ 8A\	.	.	.
!	!	!LO:N:vis=8	!
.	.	16a\K 16aa\	.
8C\J 8E\ 8A\	.	8g\J 8gg\	.
=63	=63	=63	=63
!	!LO:N:vis=4	!	!
8rA	4.F\	(>4cc\ 4ccc\	.
8G\L 8c\	.	.	.
8G\J 8c\	.	8gg\)	.
=64	=64	=64	=64
!	!LO:N:vis=4	!	!
8rF	4.E\	(>4dd\ 4bb	.
8F/L 8G/ 8B/	.	.	.
8F/J 8G/ 8B/	.	8gg\)	.
=65	=65	=65	=65
!	!LO:N:vis=4	!	!
8rF	4.C\	4ee\ 4ccc\	.
8E/L 8G/ 8c/	.	.	.
8E/J 8G/ 8c/	.	16cc\LL 16ccc\	.
.	.	16cc\JJ 16ccc\	.
*v	*v	*	*
!!LO:LB:g=original
=66	=66	=66
!!mixed beam:problem
!LO:TX:t=P:problem=mixed beam	!	!
8FF/L	8cc\L 8ccc\	.
8C\ 8F\ 8A\	8b\ 8bb\	.
8C\J 8F\ 8A\	8a\J 8aa\	.
=67	=67	=67
8GG/	8g\L 8gg\	.
8C\L 8E\ 8G\	8f\ 8ff\	.
8C\J 8E\ 8G\	8e\J 8ee\	.
=68	=68	=68
8GG\L	8d/L 8dd/	.
8BB\ 8D\ 8G\	8c/ 8cc/	.
8BB\J 8D\ 8G\	8d/J 8dd/	.
=69	=69	=69
8AA\L	4e/ 4ee/	.
8C\ 8E\	.	.
8C\J 8E\	16cc\LL 16ccc	.
.	16cc\JJ 16ccc	.
=70	=70	=70
8FF#X/L	8cc\L 8ccc\	.
8C/ 8E-X/	8b\ 8bb\	.
8C/J 8E-/	8a\J 8aa\	.
=71	=71	=71
8GG\L	8g\L 8gg\	.
8C\ 8E\ 8G\	8f\ 8ff\	.
8C\J 8E\ 8G\	8f\J 8ee\	.
=72	=72	=72
!!mixed beam:problem
!LO:TX:t=P:problem=mixed beam	!	!
8GG/L	8d/L 8dd/	.
8D\ 8F\	8e/ 8ee/	.
!	!LO:TX:b:t=Vals Da Capo al	!
8D\J 8F\	8d/J 8dd/	.
==	==	==
*-	*-	*-
!!!system-decoration: [{g1}]
!!!RDF**dynam: < = "cres", fontstyle="italic"
!!!RDF**kern: > = above
!!!RDF**kern: < = below
!!!ENC: Marcin Jachim
!!!END: 2020-06-17
!!!EED: Jędrzej Mróz
!!!EEV: 2022-01-05
!!!RDF**kern: | = vertical stroke
